Papirus/64x64/apps/app.organicmaps.desktop.svg

<svg xmlns="http://www.w3.org/2000/svg" width="64" height="64" version="1.1">
 <rect style="opacity:0.2" width="56" height="56" x="4" y="5" rx="28" ry="28"/>
 <rect style="fill:#00783b" width="56" height="56" x="4" y="4" rx="28" ry="28"/>
 <path style="opacity:0.2" d="m14.137 37.678c0.491 1.511 3.881 0.87 5.464 0.637-1.057-1.656-1.927-3.451-2.601-4.921-1.493 1.276-3.138 3.436-2.863 4.284zm33.863-8.678c0 8.846-16 24-16 24s-6.306-5.996-11-12.632c-1.029 0.172-3.525 0.632-5 0.632-2.063 0-4-1.238-4-3 0-3.426 3-5.873 4.241-7 1.759-1.523 3.759-3 5.759-4 0 0 2 2 4 2 7 0 11-7 14-8-2-2-7-4-10-4s-7 1-8 6c4-1.75 8-2 13-2-3 0-10.823 2.743-13 4-1.252 0.723-4.413 2.46-6 4 0-8.846 7.044-16 16-16 4.354 0 8.247 1.685 11.106 4.435 1.894-0.341 2.894-0.435 3.894-0.435 3 0 5 0.882 5 3 0 3-2.548 5.422-4.14 7-0.898 0.736-3.1 2.627-5.86 4 0 0-2-2-4-2-7 0-11 7-14 8 2 2 7 4 10 4s7-1 8-6c-4 1.759-8 2-13 2 3 0 11-2.845 13-4 1.29-0.745 4.555-2.555 6-4zm1.863-8.677c-0.239-0.781-2.449-1.104-4.863-0.705 0.997 1.386 1.694 2.984 2.29 4.619 1.422-1.18 2.814-3.123 2.573-3.914z"/>
 <path style="fill:#e4e4e4" d="m14.137 36.678c0.491 1.511 3.881 0.87 5.464 0.637-1.057-1.656-1.927-3.451-2.601-4.921-1.493 1.276-3.138 3.436-2.863 4.284zm33.863-8.678c0 8.846-16 24-16 24s-6.306-5.996-11-12.632c-1.029 0.172-3.525 0.632-5 0.632-2.063 0-4-1.238-4-3 0-3.426 3-5.873 4.241-7 1.759-1.523 3.759-3 5.759-4 0 0 2 2 4 2 7 0 11-7 14-8-2-2-7-4-10-4s-7 1-8 6c4-1.75 8-2 13-2-3 0-10.823 2.743-13 4-1.252 0.723-4.413 2.46-6 4 0-8.846 7.044-16 16-16 4.354 0 8.247 1.685 11.106 4.435 1.894-0.341 2.894-0.435 3.894-0.435 3 0 5 0.882 5 3 0 3-2.548 5.422-4.14 7-0.898 0.736-3.1 2.627-5.86 4 0 0-2-2-4-2-7 0-11 7-14 8 2 2 7 4 10 4s7-1 8-6c-4 1.759-8 2-13 2 3 0 11-2.845 13-4 1.29-0.745 4.555-2.555 6-4zm1.863-8.677c-0.239-0.781-2.449-1.104-4.863-0.705 0.997 1.386 1.694 2.984 2.29 4.619 1.422-1.18 2.814-3.123 2.573-3.914z"/>
 <path style="fill:#ffffff;opacity:0.2" d="m32 4c-15.512 0-28 12.488-28 28v0.35c0-15.512 12.488-27.35 28-27.35s28 11.838 28 27.35v-0.35c0-15.512-12.488-28-28-28z"/>
</svg>

<?xml version="1.0" encoding="UTF-8" standalone="no"?>
<svg
   id="_图层_1"
   version="1.1"
   viewBox="0 0 64 64" width="64" height="64"
   sodipodi:docname="app.organicmaps.desktop.svg"
   xml:space="preserve"
   inkscape:version="1.4 (e7c3feb100, 2024-10-09)"
   xmlns:inkscape="http://www.inkscape.org/namespaces/inkscape"
   xmlns:sodipodi="http://sodipodi.sourceforge.net/DTD/sodipodi-0.dtd"
   xmlns="http://www.w3.org/2000/svg"
   xmlns:svg="http://www.w3.org/2000/svg"><sodipodi:namedview
     id="namedview26"
     pagecolor="#505050"
     bordercolor="#eeeeee"
     borderopacity="1"
     inkscape:showpageshadow="0"
     inkscape:pageopacity="0"
     inkscape:pagecheckerboard="0"
     inkscape:deskcolor="#505050"
     inkscape:zoom="10.6875"
     inkscape:cx="32"
     inkscape:cy="35.649123"
     inkscape:window-width="1920"
     inkscape:window-height="939"
     inkscape:window-x="0"
     inkscape:window-y="34"
     inkscape:window-maximized="1"
     inkscape:current-layer="g26" /><!-- Generator: Adobe Illustrator 29.0.1, SVG Export Plug-In . SVG Version: 2.1.0 Build 192)  --><defs
     id="defs6"><inkscape:path-effect
       effect="fillet_chamfer"
       id="path-effect26"
       is_visible="true"
       lpeversion="1"
       nodesatellites_param="F,0,0,1,0,0,0,1 @ F,0,0,1,0,0,0,1 @ F,0,0,1,0,0,0,1 @ F,0,1,1,0,0,0,1"
       radius="0"
       unit="px"
       method="auto"
       mode="F"
       chamfer_steps="1"
       flexible="false"
       use_knot_distance="true"
       apply_no_radius="true"
       apply_with_radius="true"
       only_selected="false"
       hide_knots="false" /><style
       id="style1">
      .st0 {
        fill-opacity: .5;
      }

      .st0, .st1, .st2, .st3, .st4, .st5, .st6, .st7 {
        fill: #fff;
      }

      .st8 {
        fill: #133c9a;
      }

      .st2, .st9 {
        display: none;
      }

      .st3 {
        fill-opacity: .2;
      }

      .st4 {
        fill-opacity: .9;
      }

      .st10 {
        fill: #3370ff;
      }

      .st11 {
        fill: url(#_未命名的渐变_3);
      }

      .st12 {
        fill: url(#_未命名的渐变);
      }

      .st5 {
        fill-opacity: .3;
      }

      .st6 {
        fill-opacity: 0;
      }

      .st7 {
        fill-opacity: .7;
      }

      .st13 {
        fill: #00d6b9;
      }

      .st14 {
        fill: url(#_未命名的渐变_2);
      }
    </style><radialGradient
       id="_未命名的渐变"
       data-name="未命名的渐变"
       cx="123.9"
       cy="-40.2"
       fx="123.9"
       fy="-40.2"
       r="59.4"
       gradientTransform="translate(-26.8 25.5) scale(.6 -.7)"
       gradientUnits="userSpaceOnUse"><stop
         offset="0"
         stop-color="#db202e"
         id="stop1" /><stop
         offset="1"
         stop-color="#e01b24"
         id="stop2" /></radialGradient><radialGradient
       id="_未命名的渐变_2"
       data-name="未命名的渐变 2"
       cx="67.6"
       cy="26.8"
       fx="67.6"
       fy="26.8"
       r="105.2"
       gradientTransform="translate(-26.6 25.3) scale(.6 -.7)"
       gradientUnits="userSpaceOnUse"><stop
         offset="0"
         stop-color="#ffb648"
         id="stop3" /><stop
         offset="1"
         stop-color="#ff7800"
         stop-opacity="0"
         id="stop4" /></radialGradient><radialGradient
       id="_未命名的渐变_3"
       data-name="未命名的渐变 3"
       cx="61.7"
       cy="18.6"
       fx="61.7"
       fy="18.6"
       r="68"
       gradientTransform="translate(-26.8 25.8) scale(.6 -.7)"
       gradientUnits="userSpaceOnUse"><stop
         offset="0"
         stop-color="#c64600"
         id="stop5" /><stop
         offset="1"
         stop-color="#a51d2d"
         id="stop6" /></radialGradient></defs><path
     class="st1"
     d="M47.5,64.1H13.8c-7.6,0-13.8-6.3-13.8-13.8V13.7C0,6.2,6.2,0,13.7,0h36.6c7.5,0,13.7,6.2,13.7,13.7v36.6c0,7.5-6.2,13.7-13.7,13.7h-2.9.1Z"
     id="path6"
     style="fill:#00783b;fill-opacity:1" /><g
     id="g26"
     transform="matrix(1.1403508,0,0,1.1378886,-4.4912281,-4.4433672)"><path
       style="opacity:0.2"
       d="m 14.137,37.678 c 0.491,1.511 3.881,0.87 5.464,0.637 C 18.544,36.659 17.674,34.864 17,33.394 15.507,34.67 13.862,36.83 14.137,37.678 Z M 48,29 C 48,37.846 32,53 32,53 32,53 25.694,47.004 21,40.368 19.971,40.54 17.475,41 16,41 13.937,41 12,39.762 12,38 12,34.574 15,32.127 16.241,31 18,29.477 20,28 22,27 c 0,0 2,2 4,2 7,0 11,-7 14,-8 -2,-2 -7,-4 -10,-4 -3,0 -7,1 -8,6 4,-1.75 8,-2 13,-2 -3,0 -10.823,2.743 -13,4 -1.252,0.723 -4.413,2.46 -6,4 0,-8.846 7.044,-16 16,-16 4.354,0 8.247,1.685 11.106,4.435 C 45,17.094 46,17 47,17 c 3,0 5,0.882 5,3 0,3 -2.548,5.422 -4.14,7 -0.898,0.736 -3.1,2.627 -5.86,4 0,0 -2,-2 -4,-2 -7,0 -11,7 -14,8 2,2 7,4 10,4 3,0 7,-1 8,-6 -4,1.759 -8,2 -13,2 3,0 11,-2.845 13,-4 1.29,-0.745 4.555,-2.555 6,-4 z m 1.863,-8.677 C 49.624,19.542 47.414,19.219 45,19.618 c 0.997,1.386 1.694,2.984 2.29,4.619 1.422,-1.18 2.814,-3.123 2.573,-3.914 z"
       id="path2" /><path
       style="fill:#e4e4e4"
       d="m 14.137,36.678 c 0.491,1.511 3.881,0.87 5.464,0.637 C 18.544,35.659 17.674,33.864 17,32.394 15.507,33.67 13.862,35.83 14.137,36.678 Z M 48,28 C 48,36.846 32,52 32,52 32,52 25.694,46.004 21,39.368 19.971,39.54 17.475,40 16,40 13.937,40 12,38.762 12,37 12,33.574 15,31.127 16.241,30 18,28.477 20,27 22,26 c 0,0 2,2 4,2 7,0 11,-7 14,-8 -2,-2 -7,-4 -10,-4 -3,0 -7,1 -8,6 4,-1.75 8,-2 13,-2 -3,0 -10.823,2.743 -13,4 -1.252,0.723 -4.413,2.46 -6,4 0,-8.846 7.044,-16 16,-16 4.354,0 8.247,1.685 11.106,4.435 C 45,16.094 46,16 47,16 c 3,0 5,0.882 5,3 0,3 -2.548,5.422 -4.14,7 -0.898,0.736 -3.1,2.627 -5.86,4 0,0 -2,-2 -4,-2 -7,0 -11,7 -14,8 2,2 7,4 10,4 3,0 7,-1 8,-6 -4,1.759 -8,2 -13,2 3,0 11,-2.845 13,-4 1.29,-0.745 4.555,-2.555 6,-4 z m 1.863,-8.677 C 49.624,18.542 47.414,18.219 45,18.618 c 0.997,1.386 1.694,2.984 2.29,4.619 1.422,-1.18 2.814,-3.123 2.573,-3.914 z"
       id="path3" /></g></svg>
